X: 30941
T: Over The Waterfall
R: reel
M: 4/4
K: Dmajor
fa g/f/e|f/g/f/e/ dA|fa g/f/e|d>e de|
fa g/f/e|f/g/f/e/ dd|=c>c BA|G>G GG:|
AA BB|A/B/A/G/ FA|d>d e/d/c|d>d dd|
AD BD|A/B/A/G/ FF/G/|A>A G/F/E|D2 D2:|

